modules/feathericon/icons/align-center.svg

<?xml version="1.0" encoding="UTF-8"?>
<svg width="12px" height="14px" viewBox="0 0 12 14" version="1.1" xmlns="http://www.w3.org/2000/svg" xmlns:xlink="http://www.w3.org/1999/xlink">
    <!-- Generator: sketchtool 48.1 (47250) - http://www.bohemiancoding.com/sketch -->
    <title>align-center</title>
    <desc>Created with sketchtool.</desc>
    <defs></defs>
    <g id="production" stroke="none" stroke-width="1" fill="none" fill-rule="evenodd">
        <g id="align-center" fill="#000000">
            <path d="M1.99703014,7 L1.99703014,10 L5,10 L5,14 L7,14 L7,10 L10.0029699,10 L10.0029699,7 L7,7 L7,5 L11.9975267,5 L11.9975267,2 L7,2 L7,0 L5,0 L5,2 L0.00247329473,2 L0.00247329473,5 L5,5 L5,7 L1.99703014,7 Z" id="Shape"></path>
        </g>
    </g>
</svg>

<svg width="12" height="14" xmlns="http://www.w3.org/2000/svg"><path d="M1.997 7v3H5v4h2v-4h3.003V7H7V5h4.998V2H7V0H5v2H.002v3H5v2H1.997z" fill="#000" fill-rule="evenodd"/></svg>
